X: 29
T: Star Of Munster, The
Z: R K
S: https://thesession.org/tunes/197#setting54334
R: reel
M: 4/4
L: 1/8
K: Ador
Z AB |: "Am"ccAc "G"BAGB | "Am"AGEA "G" GED^D | "Am" EAAB cBcd |
"F"eaaf "G"gedB | "Am"ccAc "G"BAGB | "Am" AGEA "G"GED^D | "Am" EAAB cded |
|1 "Em"cAAG "Am" A2 :|2 "Em"cABG "Am" Aceg |: "Am" a2 ab ageg | agbg agef |
"G" g2 ga gede | gabg ageg | "Am" a2 ab ageg | agbg agef |
|1 "G" gedc BAGE | "Em" DEGA "G" Bdeg :|2 "G" g2 ga gedB|"Em" cAAG "Am"A2 ||

%-------------------- TUNE SEPARATOR --------------------%

